X:1
T: Voulez vous Danser
C:
R:Jig
Q:180
K:D
M:6/8
L:1/16
f4f2 f4f2|e2d2e2 d6|c4d2 e4c2|d4e2 f4d2|f4f2 f4f2|e2d2e2 d2e2f2|g4f2 e4d2|c6 d6|
e4e2 c4A2|d4f2 e6|e4e2 c4A2|d4f2 e6|a4a2 ^g4g2|f4f2 e4e2|d4d2 c4B2|A6 a4g2|
f4f2 f4f2|e2d2e2 d6|c4d2 e4c2|d4e2 f4d2|f4f2 f4f2|e2d2e2 d2e2f2|g4f2 e4d2|c6 d6|
a4a2 a4a2|g2f2g2 f6|e4f2 g4e2|f4g2 a4f2|a4a2 a4a2|g2f2g2 f2g2a2|b4a2 g4f2|e6 d6||
